Simply-Red-Circles/scalable/apps/gtranslator.svg

<?xml version="1.0" encoding="UTF-8" standalone="no"?><svg xmlns:dc="http://purl.org/dc/elements/1.1/" xmlns:cc="http://creativecommons.org/ns#" xmlns:rdf="http://www.w3.org/1999/02/22-rdf-syntax-ns#" xmlns="http://www.w3.org/2000/svg" width="48" height="48" viewBox="0 0 12.7 12.7"><metadata><rdf:RDF><cc:Work><dc:format>image/svg+xml</dc:format><dc:type rdf:resource="http://purl.org/dc/dcmitype/StillImage"/><dc:title/></cc:Work></rdf:RDF></metadata><path d="M6.34.07a6.29 6.29 0 0 0-6.29 6.3 6.29 6.29 0 0 0 6.3 6.28 6.29 6.29 0 0 0 6.28-6.29A6.29 6.29 0 0 0 6.34.07zm-.01.94a5.4 5.4 0 0 1 5.4 5.4 5.4 5.4 0 0 1-5.4 5.41 5.4 5.4 0 0 1-5.41-5.4A5.4 5.4 0 0 1 6.32 1zm-.28 2a.77.77 0 0 0-.76.76v1.48c-.4-.15-.83-.23-1.3-.23-1.62 0-2.94.97-2.94 2.18 0 1.03.97 1.89 2.26 2.12l-.17 1.2 1.33-1.17c1.4-.17 2.46-1.07 2.46-2.15 0-.07 0-.14-.02-.21h.34l1.42 1.06a.38.38 0 0 0 .6-.37l-.12-.7h.88c.41 0 .76-.34.76-.75V3.77a.77.77 0 0 0-.76-.76zm0 .76h3.98v2.46H8.7a.38.38 0 0 0-.37.44l.03.21-.76-.57a.38.38 0 0 0-.23-.08h-.75a2.35 2.35 0 0 0-.57-.59zm2.08.34c-.28 0-.5.08-.65.24a.82.82 0 0 0-.24.6c0 .27.1.47.3.6H7.2v.33H8v-.36a.34.34 0 0 1-.09-.06.68.68 0 0 1-.2-.5.6.6 0 0 1 .12-.37c.07-.1.18-.15.31-.15.14 0 .24.05.32.15.08.1.11.22.11.37 0 .2-.06.36-.2.5a.35.35 0 0 1-.08.06v.36h.8v-.34h-.36c.2-.12.3-.32.3-.59a.82.82 0 0 0-.23-.6.88.88 0 0 0-.66-.24zM3.9 6.01h.72l.87 2.34h-.6l-.15-.43h-.95l-.15.43h-.6zm.36.54l-.32.94h.64z" fill="#a02c2c"/></svg>

<?xml version="1.0" encoding="UTF-8" standalone="no"?>
<svg
   xmlns:dc="http://purl.org/dc/elements/1.1/"
   xmlns:cc="http://creativecommons.org/ns#"
   xmlns:rdf="http://www.w3.org/1999/02/22-rdf-syntax-ns#"
   xmlns:svg="http://www.w3.org/2000/svg"
   xmlns="http://www.w3.org/2000/svg"
   xmlns:sodipodi="http://sodipodi.sourceforge.net/DTD/sodipodi-0.dtd"
   xmlns:inkscape="http://www.inkscape.org/namespaces/inkscape"
   width="48"
   height="48"
   viewBox="0 0 12.7 12.7"
   version="1.1"
   id="svg6"
   sodipodi:docname="gtranslator.svg"
   inkscape:version="0.92.4 (5da689c313, 2019-01-14)">
  <defs
     id="defs10" />
  <sodipodi:namedview
     pagecolor="#ffffff"
     bordercolor="#666666"
     borderopacity="1"
     objecttolerance="10"
     gridtolerance="10"
     guidetolerance="10"
     inkscape:pageopacity="0"
     inkscape:pageshadow="2"
     inkscape:window-width="1087"
     inkscape:window-height="480"
     id="namedview8"
     showgrid="false"
     inkscape:zoom="4.9166667"
     inkscape:cx="2.1355932"
     inkscape:cy="24"
     inkscape:window-x="0"
     inkscape:window-y="25"
     inkscape:window-maximized="0"
     inkscape:current-layer="svg6" />
  <metadata
     id="metadata2">
    <rdf:RDF>
      <cc:Work>
        <dc:format>image/svg+xml</dc:format>
        <dc:type
           rdf:resource="http://purl.org/dc/dcmitype/StillImage" />
        <dc:title></dc:title>
      </cc:Work>
    </rdf:RDF>
  </metadata>
  <path
     d="M 6.34,0.07 A 6.29,6.29 0 0 0 0.05,6.37 6.29,6.29 0 0 0 6.35,12.65 6.29,6.29 0 0 0 12.63,6.36 6.29,6.29 0 0 0 6.34,0.07 Z M 6.33,1.01 a 5.4,5.4 0 0 1 5.4,5.4 5.4,5.4 0 0 1 -5.4,5.41 A 5.4,5.4 0 0 1 0.92,6.42 5.4,5.4 0 0 1 6.32,1 Z m -0.28,2 A 0.77,0.77 0 0 0 5.29,3.77 V 5.25 C 4.89,5.1 4.46,5.02 3.99,5.02 2.37,5.02 1.05,5.99 1.05,7.2 c 0,1.03 0.97,1.89 2.26,2.12 L 3.14,10.52 4.47,9.35 C 5.87,9.18 6.93,8.28 6.93,7.2 6.93,7.13 6.93,7.06 6.91,6.99 H 7.25 L 8.67,8.05 A 0.38,0.38 0 0 0 9.27,7.68 L 9.15,6.98 h 0.88 c 0.41,0 0.76,-0.34 0.76,-0.75 V 3.77 A 0.77,0.77 0 0 0 10.03,3.01 Z m 0,0.76 h 3.98 V 6.23 H 8.7 A 0.38,0.38 0 0 0 8.33,6.67 L 8.36,6.88 7.6,6.31 A 0.38,0.38 0 0 0 7.37,6.23 H 6.62 A 2.35,2.35 0 0 0 6.05,5.64 Z m 2.08,0.34 c -0.28,0 -0.5,0.08 -0.65,0.24 a 0.82,0.82 0 0 0 -0.24,0.6 c 0,0.27 0.1,0.47 0.3,0.6 H 7.2 V 5.88 H 8 V 5.52 A 0.34,0.34 0 0 1 7.91,5.46 0.68,0.68 0 0 1 7.71,4.96 0.6,0.6 0 0 1 7.83,4.59 C 7.9,4.49 8.01,4.44 8.14,4.44 c 0.14,0 0.24,0.05 0.32,0.15 0.08,0.1 0.11,0.22 0.11,0.37 0,0.2 -0.06,0.36 -0.2,0.5 A 0.35,0.35 0 0 1 8.29,5.52 v 0.36 h 0.8 V 5.54 H 8.73 C 8.93,5.42 9.03,5.22 9.03,4.95 A 0.82,0.82 0 0 0 8.8,4.35 0.88,0.88 0 0 0 8.14,4.11 Z M 3.9,6.01 H 4.62 L 5.49,8.35 H 4.89 L 4.74,7.92 H 3.79 L 3.64,8.35 H 3.04 Z M 4.26,6.55 3.94,7.49 h 0.64 z"
     id="path4"
     inkscape:connector-curvature="0"
     style="fill:#a02c2c" />
</svg>
